packages/merlin-www-assets/imports/brides/icons/figure-whatsapp.svg

<svg viewBox="0 0 16 16" xmlns="http://www.w3.org/2000/svg"><path d="m12.1 9.6a.7.7 0 0 0 -.4-.2 7.54 7.54 0 0 0 -1.3-.6c-.2-.1-.3-.1-.4.1s-.5.6-.6.7a.3.3 0 0 1 -.4 0 5.48 5.48 0 0 1 -1.6-.9 4.88 4.88 0 0 1 -1.1-1.3.3.3 0 0 1 .1-.4l.3-.3c.1-.1.1-.2.2-.3a.32.32 0 0 0 0-.3 11.43 11.43 0 0 0 -.6-1.4c-.2-.5-.3-.5-.4-.5h-.4a.65.65 0 0 0 -.5.2 2.45 2.45 0 0 0 -.7 1.7 3.38 3.38 0 0 0 .8 1.9 8.08 8.08 0 0 0 3.3 2.9c2 .8 2 .5 2.3.5a2 2 0 0 0 1.3-.9 1 1 0 0 0 .1-.9m-4-8.4a6.59 6.59 0 0 0 -6.6 6.6 6.23 6.23 0 0 0 1.3 3.8l-.8 2.5 2.5-.8a6.38 6.38 0 0 0 3.6 1.1 6.6 6.6 0 1 0 0-13.2m7.9 6.6a7.83 7.83 0 0 1 -7.9 7.8 8 8 0 0 1 -3.8-1l-4.3 1.4 1.4-4.2a8 8 0 0 1 -1.1-4 7.85 7.85 0 0 1 15.7 0"/></svg>

<svg id="share-whatsapp" xmlns="http://www.w3.org/2000/svg" viewBox="0 0 16 16"><title>share-whatsapp</title><path d="M12.1,9.6a0.7,0.7,0,0,0-.4-0.2,7.54,7.54,0,0,0-1.3-.6c-0.2-.1-0.3-0.1-0.4.1s-0.5.6-.6,0.7a0.3,0.3,0,0,1-.4,0,5.48,5.48,0,0,1-1.6-.9A4.88,4.88,0,0,1,6.3,7.4,0.3,0.3,0,0,1,6.4,7l0.3-.3c0.1-.1.1-0.2,0.2-0.3a0.32,0.32,0,0,0,0-.3,11.43,11.43,0,0,0-.6-1.4C6.1,4.2,6,4.2,5.9,4.2H5.5a0.65,0.65,0,0,0-.5.2,2.45,2.45,0,0,0-.7,1.7A3.38,3.38,0,0,0,5.1,8a8.08,8.08,0,0,0,3.3,2.9c2,0.8,2,.5,2.3.5a2,2,0,0,0,1.3-.9,1,1,0,0,0,.1-0.9m-4-8.4A6.59,6.59,0,0,0,1.5,7.8a6.23,6.23,0,0,0,1.3,3.8L2,14.1l2.5-.8a6.38,6.38,0,0,0,3.6,1.1,6.6,6.6,0,1,0,0-13.2M16,7.8a7.83,7.83,0,0,1-7.9,7.8,8,8,0,0,1-3.8-1L0,16l1.4-4.2a8,8,0,0,1-1.1-4A7.85,7.85,0,0,1,16,7.8"/></svg>
